resources/icons/hicolor/scalable/actions/cm-wireless-signal-weak-symbolic.svg

<?xml version="1.0" encoding="UTF-8"?>
<svg height="16px" viewBox="0 0 16 16" width="16px" xmlns="http://www.w3.org/2000/svg">
    <path d="m 8 10 c -0.511719 0 -1.023438 0.195312 -1.414062 0.585938 c -0.78125 0.78125 -0.78125 2.046874 0 2.828124 s 2.046874 0.78125 2.828124 0 s 0.78125 -2.046874 0 -2.828124 c -0.390624 -0.390626 -0.902343 -0.585938 -1.414062 -0.585938 z m 0 0" fill="#2e3436"/>
    <path d="m 8 1.992188 c -2.617188 0 -5.238281 0.933593 -7.195312 2.808593 l -0.496094 0.480469 c -0.3984378 0.378906 -0.410156 1.011719 -0.03125 1.410156 c 0.382812 0.398438 1.015625 0.410156 1.414062 0.03125 l 0.5 -0.476562 c 3.085938 -2.957032 8.53125 -2.957032 11.617188 0 l 0.5 0.476562 c 0.398437 0.378906 1.03125 0.367188 1.414062 -0.03125 c 0.378906 -0.398437 0.367188 -1.03125 -0.03125 -1.410156 l -0.496094 -0.480469 c -1.957031 -1.875 -4.578124 -2.808593 -7.195312 -2.808593 z m -0.03125 4.007812 c -1.570312 0.011719 -3.128906 0.628906 -4.207031 1.8125 l -0.5 0.550781 c -0.375 0.40625 -0.347657 1.042969 0.0625 1.414063 c 0.410156 0.371094 1.042969 0.339844 1.414062 -0.070313 l 0.5 -0.546875 c 1.277344 -1.402344 4.160157 -1.496094 5.523438 0 l 0.5 0.546875 c 0.371093 0.410157 1.003906 0.441407 1.414062 0.070313 c 0.40625 -0.371094 0.4375 -1.007813 0.0625 -1.414063 l -0.5 -0.550781 c -1.125 -1.230469 -2.703125 -1.824219 -4.269531 -1.8125 z m 0 0" fill="#2e3434" fill-opacity="0.34902"/>
</svg>

<svg width='16' height='16'
     xmlns:gpa='https://www.gtk.org/grappa'
     gpa:version='1'>
  <path d='M8.00 10.00C7.49 10.00 6.98 10.20 6.59 10.59C5.80 11.37 5.80 12.63 6.59 13.41C7.37 14.20 8.63 14.20 9.41 13.41C10.20 12.63 10.20 11.37 9.41 10.59C9.02 10.20 8.51 10.00 8.00 10.00ZM8.00 10.00'
stroke='none'
fill='rgb(0,0,0)'
gpa:fill='foreground'/>
  <path d='M8.00 1.99C5.38 1.99 2.76 2.93 0.80 4.80L0.31 5.28C-0.09 5.66 -0.10 6.29 0.28 6.69C0.66 7.09 1.29 7.10 1.69 6.72L2.19 6.25C5.28 3.29 10.72 3.29 13.81 6.25L14.31 6.72C14.71 7.10 15.34 7.09 15.72 6.69C16.10 6.29 16.09 5.66 15.69 5.28L15.20 4.80C13.24 2.93 10.62 1.99 8.00 1.99ZM7.97 6.00C6.40 6.01 4.84 6.63 3.76 7.81L3.26 8.36C2.89 8.77 2.91 9.41 3.32 9.78C3.73 10.15 4.37 10.12 4.74 9.71L5.24 9.16C6.52 7.76 9.40 7.66 10.76 9.16L11.26 9.71C11.63 10.12 12.27 10.15 12.68 9.78C13.08 9.41 13.11 8.77 12.74 8.36L12.24 7.81C11.11 6.58 9.54 5.99 7.97 6.00ZM7.97 6.00'
stroke='none'
fill='rgb(0,0,0)'
gpa:fill='foreground'/>
</svg>
